X:1
T:He Will Answer Every Prayer
T:He Will Answer Every Prayer
T:Daniel Brink Towner
T:Mary Bernstecher, 1914
T:Public Domain Courtesy of the Cyber Hymnal™
C:Daniel Brink Towner
Z:Public Domain
Z:Courtesy of the Cyber Hymnal™
%%score ( 1 2 ) 3
L:1/8
M:4/4
K:Eb
V:1 treble 
V:2 treble 
V:3 bass 
V:1
 E2 [EG]2 [GB]3 [GB] | [Ac]2 [GB]2 [GB]2 [EG]2 | [DB]2 [DF]2 [FB]3 [FB] | [Ac]2 [GB]2 [EG]4 | %4
w: 1.~God has giv- en|you His prom- ise|That He hears and|an- swers prayer.|
w: 2.~He will not with-|hold one bless- ing,|He will give you|what is best.|
w: 3.~He can hear the|great pe- ti- tion,|And the smal- lest,|o- ver there.|
w: 4.~Take to God your|plans and fail- ures,|An- y time and|an- y- where.|
 E2 [EG]2 [GB]3 [GB] | [Ac]2 [GB]2 [GB]2 [EG]2 | EE[EG]E [DF]2 [DF]2 | E6 || %8
w: He will heed your|sup- pli- ca- tion|If you cast on Him your|care.|
w: God will an- swer|by His Spir- it,|Ev- ery one who makes re-|quest.|
w: Un- to God pray|with- out ceas- ing,|He will an- swer ev- ery|prayer.|
w: No one ev- er|goes un- an- swered,|For He an- swers ev- ery|prayer.|
"^Refrain" B2 B2 [Ec] [EB]3 | E2 F2 [EG]4 | B2 B2 [Ec] [EB]3 | G2 F2 [DF]4 | %12
w: ||||
w: He will an- swer|ev- ery pray-|er, He will an-|swer ev- ery|
w: ||||
w: ||||
 [EG]2 [EG]2 [B,F]2 [B,E]2 | [EB]2 [EB]2 [Ec] [EB]3 | EE[EG]E [DF]2 [DF]2 | E6 z2 |] %16
w: ||||
w: pray- er, Go to|Him in faith be-|liev- ing, He will an- swer|ev-|
w: ||||
w: ||||
V:2
 E2 x6 | x8 | x8 | x8 | x8 | x8 | x8 | x6 || x2 (EE) x4 | (EE)DD x4 | x2 (EE) x4 | (EE)EE x4 | x8 | %13
 x8 | x8 | E6 x2 |] %16
V:3
 [E,G,]2 [E,B,]2 [E,E]3 [E,E] | [E,E]2 [E,E]2 [E,E]2 [E,B,]2 | [B,,B,]2 [B,,B,]2 [B,,D]3 [B,,D] | %3
w: ~ ~ ~ ~|~ ~ ~ ~|~ ~ ~ ~|
 [E,E]2 [E,E]2 [E,B,]4 | [E,G,]2 [E,B,]2 [E,E]3 [E,E] | [E,E]2 [E,E]2 [E,E]2 [E,B,]2 | %6
w: ~ ~ ~|~ ~ ~ ~|~ ~ ~ ~|
 [G,,B,][G,,B,][B,,B,][B,,G,] [B,,B,]2 [B,,A,]2 | [E,G,]6 || z2 [E,G,][E,G,] [E,A,] [E,G,]3 | %9
w: ~ ~ ~ ~ ~ ~|~|He will an- swer,|
 [G,,B,][G,,B,][B,,B,][B,,B,] [E,B,]4 | z2 [E,G,][E,G,] [E,A,] [E,G,]3 | %11
w: an- swer ev- ’ry prayer,|He will an- swer,|
 [E,B,][E,B,][F,=A,][F,A,] [B,,B,]4 | [E,B,]2 [E,B,]2 [E,A,]2 [E,G,]2 | %13
w: an- swer ev- ’ry prayer,||
 [E,G,]2 [E,G,]2 [E,A,] [E,G,]3 | [G,,B,][G,,B,][B,,B,][B,,G,] [B,,B,]2 [B,,A,]2 | [E,G,]6 z2 |] %16
w: |||

